icon-themes/breeze_svg/sd/res/foilh09.svg

<svg height="57" viewBox="0 0 70.999998 56.999999" width="71" xmlns="http://www.w3.org/2000/svg" xmlns:xlink="http://www.w3.org/1999/xlink"><linearGradient id="a" gradientTransform="matrix(1.05 0 0 1.0434783 -38.5 -41.661711)" gradientUnits="userSpaceOnUse" x1="798" x2="798" y1="958.21936" y2="912.21936"><stop offset="0" stop-color="#bdc3c7"/><stop offset="1" stop-color="#dadfe1"/></linearGradient><linearGradient id="b" gradientTransform="matrix(1.0576923 0 0 1.3793103 -.46154 -15.82759)" gradientUnits="userSpaceOnUse" x1="34" x2="34" y1="47.000004" y2="18.000004"><stop offset="0" stop-color="#5e6b78"/><stop offset="1" stop-color="#768492"/></linearGradient><linearGradient id="c" gradientUnits="userSpaceOnUse" x1="777" x2="817" y1="914.21936" y2="954.21936"><stop offset="0" stop-color="#383e51"/><stop offset="1" stop-color="#655c6f" stop-opacity="0"/></linearGradient><g transform="translate(-766 -905.21936)"><path d="m770.00009 910.21936h62.99982c.00005 0 .00009.00004.00009.0001v47.9998c0 .00006.00009-29.21729 0-14.60859v14.60869h-14.7-48.29991c-.00005 0-.00009-.00004-.00009-.0001v-47.9998c0-.00006.00004-.0001.00009-.0001z" fill="url(#a)"/><rect fill="#2e3132" fill-opacity=".294118" height="1" ry=".000017" width="63" x="770" y="957.21936"/><rect fill="#fff" fill-opacity=".411765" height="1" ry=".000017" width="63" x="770" y="910.21936"/><path d="m829 914.21936 4 4v40h-55l-4-4 2-12-2-2 2-12-2-2 17-12 2 2 17-2 2 2z" fill="url(#c)" fill-rule="evenodd" opacity=".2"/><path d="m8 9v12h17v-12zm19 0v12h7.482422 2.035156 1.019531 6.462891v-12h-6.462891-1.019531-2.035156zm19 0v12h17v-12zm-38 14v5 2 5h17v-12zm19 0v12h7.482422 2.035156 4.074219 3.408203v-12h-3.408203-4.074219-2.035156zm19 0v12h17v-5-2-5zm-38 14v2 10h17v-12zm19 0v12h6.462891 1.019531 2.035156 6.111328 1.371094v-12h-1.371094-6.111328-2.035156-1.019531zm19 0v12h17v-10-2z" fill="url(#b)" transform="translate(766 905.21936)"/></g></svg>

<?xml version="1.0" encoding="UTF-8" standalone="no"?>
<!-- Created with Inkscape (http://www.inkscape.org/) -->

<svg
   xmlns:dc="http://purl.org/dc/elements/1.1/"
   xmlns:cc="http://creativecommons.org/ns#"
   xmlns:rdf="http://www.w3.org/1999/02/22-rdf-syntax-ns#"
   xmlns:svg="http://www.w3.org/2000/svg"
   xmlns="http://www.w3.org/2000/svg"
   xmlns:xlink="http://www.w3.org/1999/xlink"
   xmlns:sodipodi="http://sodipodi.sourceforge.net/DTD/sodipodi-0.dtd"
   xmlns:inkscape="http://www.inkscape.org/namespaces/inkscape"
   width="71"
   height="57"
   viewBox="0 0 70.999998 56.999999"
   id="svg2"
   version="1.1"
   inkscape:version="0.91 r13725"
   sodipodi:docname="foilh09.svg">
  <defs
     id="defs4">
    <linearGradient
       inkscape:collect="always"
       id="linearGradient4300-2">
      <stop
         style="stop-color:#bdc3c7;stop-opacity:1"
         offset="0"
         id="stop4302-8" />
      <stop
         style="stop-color:#dadfe1;stop-opacity:1"
         offset="1"
         id="stop4304-0" />
    </linearGradient>
    <linearGradient
       inkscape:collect="always"
       xlink:href="#linearGradient4300-2"
       id="linearGradient4316"
       x1="798"
       y1="958.21936"
       x2="798"
       y2="912.21936"
       gradientUnits="userSpaceOnUse"
       gradientTransform="matrix(1.05,0,0,1.0434783,-38.5,-41.661711)" />
    <linearGradient
       inkscape:collect="always"
       id="linearGradient4300-7">
      <stop
         style="stop-color:#5e6b78;stop-opacity:1"
         offset="0"
         id="stop4302-2" />
      <stop
         style="stop-color:#768492;stop-opacity:1"
         offset="1"
         id="stop4304-4" />
    </linearGradient>
    <linearGradient
       gradientTransform="matrix(1.0576923,0,0,1.3793103,-0.46154,-15.82759)"
       gradientUnits="userSpaceOnUse"
       y2="18.000004"
       x2="34"
       y1="47.000004"
       x1="34"
       id="linearGradient4483"
       xlink:href="#linearGradient4300-7"
       inkscape:collect="always" />
    <linearGradient
       inkscape:collect="always"
       id="linearGradient4410">
      <stop
         style="stop-color:#383e51;stop-opacity:1"
         offset="0"
         id="stop4412" />
      <stop
         style="stop-color:#655c6f;stop-opacity:0"
         offset="1"
         id="stop4414" />
    </linearGradient>
    <linearGradient
       inkscape:collect="always"
       xlink:href="#linearGradient4410"
       id="linearGradient4303"
       x1="777"
       y1="914.21936"
       x2="817"
       y2="954.21936"
       gradientUnits="userSpaceOnUse" />
  </defs>
  <sodipodi:namedview
     id="base"
     pagecolor="#ffffff"
     bordercolor="#666666"
     borderopacity="1.0"
     inkscape:pageopacity="0.0"
     inkscape:pageshadow="2"
     inkscape:zoom="11.104195"
     inkscape:cx="41.696887"
     inkscape:cy="24.792034"
     inkscape:document-units="px"
     inkscape:current-layer="layer1"
     showgrid="true"
     inkscape:window-width="1920"
     inkscape:window-height="1021"
     inkscape:window-x="-4"
     inkscape:window-y="0"
     inkscape:window-maximized="1"
     fit-margin-top="0"
     fit-margin-left="0"
     fit-margin-right="0"
     fit-margin-bottom="0"
     inkscape:object-nodes="true"
     units="px">
    <inkscape:grid
       type="xygrid"
       id="grid4177" />
  </sodipodi:namedview>
  <metadata
     id="metadata7">
    <rdf:RDF>
      <cc:Work
         rdf:about="">
        <dc:format>image/svg+xml</dc:format>
        <dc:type
           rdf:resource="http://purl.org/dc/dcmitype/StillImage" />
        <dc:title></dc:title>
      </cc:Work>
    </rdf:RDF>
  </metadata>
  <g
     inkscape:label="Layer 1"
     inkscape:groupmode="layer"
     id="layer1"
     transform="translate(-766,-905.21936)">
    <path
       style="fill:url(#linearGradient4316);fill-opacity:1;stroke:none"
       d="m 770.00009,910.21936 62.99982,0 c 5e-5,0 9e-5,4e-5 9e-5,10e-5 l 0,47.9998 c 0,6e-5 9e-5,-29.21729 0,-14.60859 l 0,14.60869 -14.7,0 -48.29991,0 c -5e-5,0 -9e-5,-4e-5 -9e-5,-1e-4 l 0,-47.9998 c 0,-6e-5 4e-5,-10e-5 9e-5,-10e-5 z"
       id="rect4179"
       inkscape:connector-curvature="0"
       sodipodi:nodetypes="sssscccssss" />
    <rect
       style="fill:#2e3132;fill-opacity:0.29411765;stroke:none"
       id="rect4181"
       width="63"
       height="1.0000004"
       x="770"
       y="957.21936"
       ry="1.7381406e-05" />
    <rect
       style="fill:#ffffff;fill-opacity:0.41176471;stroke:none"
       id="rect4181-5"
       width="63"
       height="0.99999964"
       x="770"
       y="910.21936"
       ry="1.7381395e-05" />
    <path
       style="opacity:0.2;fill:url(#linearGradient4303);fill-opacity:1;fill-rule:evenodd;stroke:none;stroke-width:1px;stroke-linecap:butt;stroke-linejoin:miter;stroke-opacity:1"
       d="m 829,914.21936 4,4 0,40 -55,0 -4,-4 2,-12 -2,-2 2,-12 -2,-2 17,-12 2,2 17,-2 2,2 z"
       id="path4295"
       inkscape:connector-curvature="0"
       sodipodi:nodetypes="cccccccccccccc" />
    <path
       style="fill:url(#linearGradient4483);fill-opacity:1;stroke:none"
       d="M 8 9 L 8 21 L 25 21 L 25 9 L 8 9 z M 27 9 L 27 21 L 34.482422 21 L 36.517578 21 L 37.537109 21 L 44 21 L 44 9 L 37.537109 9 L 36.517578 9 L 34.482422 9 L 27 9 z M 46 9 L 46 21 L 63 21 L 63 9 L 46 9 z M 8 23 L 8 28 L 8 30 L 8 35 L 25 35 L 25 23 L 8 23 z M 27 23 L 27 35 L 34.482422 35 L 36.517578 35 L 40.591797 35 L 44 35 L 44 23 L 40.591797 23 L 36.517578 23 L 34.482422 23 L 27 23 z M 46 23 L 46 35 L 63 35 L 63 30 L 63 28 L 63 23 L 46 23 z M 8 37 L 8 39 L 8 49 L 25 49 L 25 37 L 8 37 z M 27 37 L 27 49 L 33.462891 49 L 34.482422 49 L 36.517578 49 L 42.628906 49 L 44 49 L 44 37 L 42.628906 37 L 36.517578 37 L 34.482422 37 L 33.462891 37 L 27 37 z M 46 37 L 46 49 L 63 49 L 63 39 L 63 37 L 46 37 z "
       transform="translate(766,905.21936)"
       id="rect4418" />
  </g>
</svg>
